src/assets/img/unsorted/bubble.svg

<svg height="12.25" width="14.35" xmlns="http://www.w3.org/2000/svg"><path d="M12.25 1.55q2.1 1.55 2.1 3.7 0 2.15-2.1 3.7V9q-2.15 1.45-5.05 1.45l-1.6-.1-1-.2-.2-.1-4.3 2.2L1.8 8.7Q-.05 7.25 0 5.25V5.2q-.05-1.45.95-2.6L2.1 1.55q.2-.2.45-.3Q3.1.85 3.8.6L4.9.25 7.2 0l1.45.1q1.45.2 2.7.85l.9.6" fill="#fff" fill-rule="evenodd"/><path d="m12.25 1.55-.9-.6Q10.1.3 8.65.1L7.2 0 4.9.25 3.8.6q-.7.25-1.25.65-.25.1-.45.3L.95 2.6q-1 1.15-.95 2.6v.05q-.05 2 1.8 3.45L.1 12.25l4.3-2.2.2.1 1 .2 1.6.1q2.9 0 5.05-1.45v-.05q2.1-1.55 2.1-3.7 0-2.15-2.1-3.7Z" fill="none" stroke="#337ccc" stroke-linecap="round" stroke-linejoin="round" stroke-width=".05"/><path d="M10.95 5.9h-1.5V4.45h1.5V5.9m-3-1.45V5.9H6.5V4.45h1.45M5 4.45V5.9H3.5V4.45H5" fill="#5282b3" fill-rule="evenodd"/></svg>

<?xml version="1.0" encoding="UTF-8" standalone="no"?>
<svg xmlns:xlink="http://www.w3.org/1999/xlink" height="12.25px" width="14.35px" xmlns="http://www.w3.org/2000/svg">
  <g transform="matrix(1.0, 0.0, 0.0, 1.0, -0.05, 0.0)">
    <path d="M12.3 1.55 Q14.4 3.1 14.4 5.25 14.4 7.4 12.3 8.95 L12.3 9.0 Q10.15 10.45 7.25 10.45 L5.65 10.35 4.65 10.15 4.45 10.05 0.15 12.25 1.85 8.7 Q0.0 7.25 0.05 5.25 L0.05 5.2 Q0.0 3.75 1.0 2.6 L2.15 1.55 Q2.35 1.35 2.6 1.25 3.15 0.85 3.85 0.6 L4.95 0.25 7.25 0.0 8.7 0.1 Q10.15 0.3 11.4 0.95 L12.3 1.55" fill="#ffffff" fill-rule="evenodd" stroke="none"/>
    <path d="M12.3 1.55 L11.4 0.95 Q10.15 0.3 8.7 0.1 L7.25 0.0 4.95 0.25 3.85 0.6 Q3.15 0.85 2.6 1.25 2.35 1.35 2.15 1.55 L1.0 2.6 Q0.0 3.75 0.05 5.2 L0.05 5.25 Q0.0 7.25 1.85 8.7 L0.15 12.25 4.45 10.05 4.65 10.15 5.65 10.35 7.25 10.45 Q10.15 10.45 12.3 9.0 L12.3 8.95 Q14.4 7.4 14.4 5.25 14.4 3.1 12.3 1.55 Z" fill="none" stroke="#337ccc" stroke-linecap="round" stroke-linejoin="round" stroke-width="0.05"/>
    <path d="M11.0 5.9 L9.5 5.9 9.5 4.45 11.0 4.45 11.0 5.9 M8.0 4.45 L8.0 5.9 6.55 5.9 6.55 4.45 8.0 4.45 M5.05 4.45 L5.05 5.9 3.55 5.9 3.55 4.45 5.05 4.45" fill="#5282b3" fill-rule="evenodd" stroke="none"/>
  </g>
</svg>
